img/suitecase.svg

<svg xmlns="http://www.w3.org/2000/svg" xmlns:xlink="http://www.w3.org/1999/xlink" width="200" height="200" viewBox="0 0 200 200"><rect width="100%" height="100%" fill="#fff"/><svg xmlns="http://www.w3.org/2000/svg" viewBox="0 0 100 100" transform="matrix(.69 0 0 .69 15.5 15.5)" fill="#24292e"><path d="M83.766 24.126H63.211V20.34c0-5.586-4.545-10.131-10.131-10.131h-6.16c-5.586 0-10.131 4.545-10.131 10.131v3.786H16.234C10.04 24.126 5 29.166 5 35.36v43.196c0 6.195 5.04 11.234 11.234 11.234h67.531C89.96 89.791 95 84.751 95 78.556V35.36c0-6.194-5.04-11.234-11.234-11.234zm-54.766 3h42.02V86.79H29V27.126zm-3 59.665h-5.333V27.126H26v59.665zm48.019-59.665h5.333V86.79h-5.333V27.126zm-34.23-6.785c0-3.932 3.199-7.131 7.131-7.131h6.16c3.932 0 7.131 3.199 7.131 7.131v3.786H39.789v-3.786zM8 78.556V35.36c0-4.54 3.694-8.234 8.234-8.234h1.432V86.79h-1.432C11.694 86.791 8 83.097 8 78.556zm84 0c0 4.541-3.694 8.234-8.234 8.234h-1.413V27.126h1.413c4.541 0 8.234 3.694 8.234 8.234v43.196z"/><path d="M66.376 44.958L61.395 31.9l-18.293 6.978 4.981 13.059 18.293-6.979zm-6.714-9.186l2.843 7.453-12.688 4.839-2.843-7.453 12.688-4.839zM33.345 73.104L55.716 83.49l7.304-15.731-22.371-10.386-7.304 15.731zm25.691-3.887l-4.777 10.289-16.929-7.86 4.777-10.289 16.929 7.86z"/></svg></svg>

<svg xmlns="http://www.w3.org/2000/svg" xmlns:xlink="http://www.w3.org/1999/xlink" width="200" height="200" viewBox="0 0 200 200"><rect width="100%" height="100%" fill="#ffffff"></rect><g transform="translate(50 50) scale(0.69 0.69) rotate(0) translate(-50 -50)" style="fill:#24292e"><svg fill="#24292e" xmlns="http://www.w3.org/2000/svg" xmlns:xlink="http://www.w3.org/1999/xlink" version="1.1" x="0px" y="0px" viewBox="0 0 100 100" style="enable-background:new 0 0 100 100;" xml:space="preserve"><g><path d="M83.766,24.126H63.211v-3.786c0-5.586-4.545-10.131-10.131-10.131h-6.16c-5.586,0-10.131,4.545-10.131,10.131v3.786H16.234   C10.04,24.126,5,29.166,5,35.36v43.196c0,6.195,5.04,11.234,11.234,11.234h67.531C89.96,89.791,95,84.751,95,78.556V35.36   C95,29.166,89.96,24.126,83.766,24.126z M29,27.126h9.289h23.423h9.308v59.664H29V27.126z M26,86.791h-5.333V27.126H26V86.791z    M74.019,27.126h5.333v59.664h-5.333V27.126z M39.789,20.341c0-3.932,3.199-7.131,7.131-7.131h6.16   c3.932,0,7.131,3.199,7.131,7.131v3.786H39.789V20.341z M8,78.556V35.36c0-4.54,3.694-8.234,8.234-8.234h1.432v59.664h-1.432   C11.694,86.791,8,83.097,8,78.556z M92,78.556c0,4.541-3.694,8.234-8.234,8.234h-1.413V27.126h1.413   c4.541,0,8.234,3.694,8.234,8.234V78.556z"></path><path d="M66.376,44.958L61.395,31.9l-18.293,6.978l4.981,13.059L66.376,44.958z M59.662,35.772l2.843,7.453l-12.688,4.839   l-2.843-7.453L59.662,35.772z"></path><path d="M33.345,73.104L55.716,83.49l7.304-15.731L40.649,57.373L33.345,73.104z M59.036,69.217l-4.777,10.289l-16.929-7.86   l4.777-10.289L59.036,69.217z"></path></g></svg></g></svg>
